priv/static/svgs/country_flags/MR.svg

<?xml version="1.0" encoding="UTF-8"?>
<svg id="item" width="21px" height="15px" viewBox="0 0 21 15" version="1.1" xmlns="http://www.w3.org/2000/svg" xmlns:xlink="http://www.w3.org/1999/xlink">
    <defs>
        <linearGradient x1="50%" y1="0%" x2="50%" y2="100%" id="linearGradient-1">
            <stop stop-color="#FFFFFF" offset="0%"></stop>
            <stop stop-color="#F0F0F0" offset="100%"></stop>
        </linearGradient>
        <linearGradient x1="50%" y1="0%" x2="50%" y2="100%" id="linearGradient-2">
            <stop stop-color="#108B4D" offset="0%"></stop>
            <stop stop-color="#0A6135" offset="100%"></stop>
        </linearGradient>
        <linearGradient x1="50%" y1="0%" x2="50%" y2="100%" id="linearGradient-3">
            <stop stop-color="#FFC941" offset="0%"></stop>
            <stop stop-color="#FFC42E" offset="100%"></stop>
        </linearGradient>
    </defs>
    <g id="Symbols" stroke="none" stroke-width="1" fill="none" fill-rule="evenodd">
        <g id="MR">
            <rect id="FlagBackground" fill="url(#linearGradient-1)" x="0" y="0" width="21" height="15"></rect>
            <rect id="Mask-Copy" fill="url(#linearGradient-2)" x="0" y="0" width="21" height="15"></rect>
            <path d="M14.8602372,5.80000019 C14.896665,6.03057572 14.9155813,6.26697421 14.9155813,6.50779084 C14.9155813,8.99307222 12.9008627,11.0077908 10.4155813,11.0077908 C7.93029993,11.0077908 5.9155813,8.99307222 5.9155813,6.50779084 C5.9155813,6.26697421 5.9344976,6.03057572 5.97092538,5.80000019 C6.31044035,7.94901552 8.17111656,9.59220954 10.4155813,9.59220954 C12.660046,9.59220954 14.5207223,7.94901552 14.8602372,5.80000019 L14.8602372,5.80000019 Z M10.5,6.42306502 L9.26393202,7.30422607 L9.71999997,5.85636182 L8.5,4.95308506 L10.0179335,4.93941679 L10.5,3.5 L10.9820665,4.93941679 L12.5,4.95308506 L11.28,5.85636182 L11.736068,7.30422607 L10.5,6.42306502 L10.5,6.42306502 Z" id="Star-8" fill="url(#linearGradient-3)"></path>
        </g>
    </g>
</svg>

<svg width="21" height="15" viewBox="0 0 21 15" xmlns="http://www.w3.org/2000/svg"><defs><linearGradient x1="50%" y1="0%" x2="50%" y2="100%" id="a"><stop stop-color="#FFF" offset="0%"/><stop stop-color="#F0F0F0" offset="100%"/></linearGradient><linearGradient x1="50%" y1="0%" x2="50%" y2="100%" id="b"><stop stop-color="#108B4D" offset="0%"/><stop stop-color="#0A6135" offset="100%"/></linearGradient><linearGradient x1="50%" y1="0%" x2="50%" y2="100%" id="c"><stop stop-color="#FFC941" offset="0%"/><stop stop-color="#FFC42E" offset="100%"/></linearGradient></defs><g fill="none" fill-rule="evenodd"><path fill="url(#a)" d="M0 0h21v15H0z"/><path fill="url(#b)" d="M0 0h21v15H0z"/><path d="M14.86 5.8a4.5 4.5 0 1 1-8.89 0 4.501 4.501 0 0 0 8.89 0Zm-4.36.623-1.236.881.456-1.448-1.22-.903 1.518-.014L10.5 3.5l.482 1.44 1.518.013-1.22.903.456 1.448-1.236-.88Z" fill="url(#c)"/></g></svg>
